X:2998
T:Polska efter Brynte Olsson (Kull)
S:efter Brynte Kull
B:EÖ, nr 285
R:Polska
O:Boda, Skillingmarks sn, Värmland
Z:Nils L
L:1/8
M:3/4
%%tuplets 0 0 1
K:G
((3GAB) ((3GAB) ((3GAB) | G>B d2 g2 | B>c A>c (3PBAB | (3cAB GB D2 |
((3GAB) ((3GAB) ((3GAB) | (3GAB d2 g2 | Bc Ac (3BAB | (3cAB [G,G]3z ::
g>f e>^d e>f | g>f (3e^de B2 | g>f e>^d e>f | (3gfg f2 b> a |
g>f e>^d e>f | g>f (3e^de B2 | Bc A>c (3BAB | (3cAB G3z :|
(:musicend:)
(:music:)
